X: 514
P: Longways for as many as will
M: 9/8
L: 1/8
K: D
V: 1
|: e |\
e>dc/B/ A2B G2F | B>AG/F/ E2D    E3 |\
EFG     GFB BAd | dcd     e/f/ge d2 :|
V: 2 clef=bass middle=d
z |\
d3 f3 e2g | f2d a2d A3 |\
d3 f3 e2g | f2d g2a d2 :|
|: A |\
a3 f2g e2f | g2B c2d A2B |\
c3 e2g f2d | g2f g2a d2 :|

